lib/icons/telegram.svg

<svg width="21" height="17" viewBox="0 0 21 17" fill="none" xmlns="http://www.w3.org/2000/svg">
<path d="M20.7505 0.625C20.7505 0.5 20.6255 0.375 20.5005 0.25C20.2505 0.25 20.0005 0.25 19.7505 0.25C19.7505 0.25 2.25053 6.5 1.25053 7.25C0.87553 7.5 0.87553 7.625 0.75053 7.625C0.62553 8.125 1.12553 8.375 1.12553 8.375L5.62553 9.875C5.75053 9.875 5.75053 9.875 5.87553 9.875C6.87553 9.25 16.2505 3.375 16.7505 3.125C16.8755 3.125 16.8755 3.125 16.8755 3.125C16.6255 3.875 8.62553 11 8.62553 11.125C8.62553 11.125 8.50053 11.25 8.62553 11.25L8.25053 15.625C8.25053 15.625 8.12553 17 9.50053 15.625C10.5005 14.625 11.3755 13.875 11.8755 13.5C13.3755 14.625 15.1255 15.75 15.8755 16.375C16.1255 16.625 16.5005 16.75 16.7505 16.75C17.1255 16.75 17.5005 16.375 17.6255 16C17.6255 16 20.8755 3.125 20.8755 1.375C20.8755 1.25 20.8755 1.125 20.8755 1C20.7505 0.875 20.7505 0.75 20.7505 0.625Z" fill="#2F354D"/>
</svg>

<svg width="21" height="17" fill="none" xmlns="http://www.w3.org/2000/svg"><path d="M20.75.625c0-.125-.125-.25-.25-.375h-.75s-17.5 6.25-18.5 7c-.374.25-.374.375-.5.375-.124.5.376.75.376.75l4.5 1.5h.25c1-.625 10.374-6.5 10.874-6.75h.125c-.25.75-8.25 7.875-8.25 8 0 0-.124.125 0 .125l-.374 4.375s-.125 1.375 1.25 0c1-1 1.875-1.75 2.375-2.125 1.5 1.125 3.25 2.25 4 2.875.25.25.624.375.874.375.375 0 .75-.375.875-.75 0 0 3.25-12.875 3.25-14.625V1C20.75.875 20.75.75 20.75.625Z" fill="#2F354D"/></svg>
